austria/municipalities/40425.svg

<?xml version="1.0" encoding="UTF-8"?>
<!DOCTYPE svg PUBLIC "-//W3C//DTD SVG 1.1//EN" "http://www.w3.org/Graphics/SVG/1.1/DTD/svg11.dtd">
<svg xmlns="http://www.w3.org/2000/svg" version="1.1" width="166px" height="207px" style="shape-rendering:geometricPrecision; text-rendering:geometricPrecision; image-rendering:optimizeQuality; fill-rule:evenodd; clip-rule:evenodd" xmlns:xlink="http://www.w3.org/1999/xlink">
<g><path style="opacity:1" fill="#000000" d="M -0.5,-0.5 C 54.8333,-0.5 110.167,-0.5 165.5,-0.5C 165.5,43.5 165.5,87.5 165.5,131.5C 158.017,171.315 134.684,196.315 95.5,206.5C 86.8333,206.5 78.1667,206.5 69.5,206.5C 29.3806,196.049 6.0473,170.382 -0.5,129.5C -0.5,86.1667 -0.5,42.8333 -0.5,-0.5 Z"/></g>
<g><path style="opacity:1" fill="#fefffe" d="M 3.5,3.5 C 56.1667,3.5 108.833,3.5 161.5,3.5C 161.667,47.5013 161.5,91.5013 161,135.5C 159.711,142.201 157.545,148.534 154.5,154.5C 145.974,146.486 138.808,137.486 133,127.5C 128.298,118.365 126.298,108.698 127,98.5C 128.404,94.7209 130.904,93.7209 134.5,95.5C 138.852,99.0187 142.686,103.019 146,107.5C 147.161,112.416 147.827,117.416 148,122.5C 151.232,119.441 153.399,115.774 154.5,111.5C 152.851,101.661 147.517,94.8281 138.5,91C 128.372,88.8106 121.872,92.6439 119,102.5C 118.637,106.866 118.637,111.199 119,115.5C 108.986,105.653 99.1523,95.6525 89.5,85.5C 92.4917,79.6791 97.1584,75.8458 103.5,74C 112.63,71.7345 121.63,72.0679 130.5,75C 133.801,78.102 135.634,81.9354 136,86.5C 142.157,80.11 141.99,73.9434 135.5,68C 127.25,63.2197 118.583,62.3863 109.5,65.5C 109.167,65.1667 108.833,64.8333 108.5,64.5C 110.872,60.6169 114.205,58.1169 118.5,57C 128.667,46.8333 138.833,36.6667 149,26.5C 149.595,25.1011 149.428,23.7678 148.5,22.5C 150.655,19.1819 152.988,16.0153 155.5,13C 155,11.1667 153.833,10 152,9.5C 149.216,11.2799 146.716,13.4465 144.5,16C 142.833,16.3333 141.167,16.6667 139.5,17C 128.462,27.784 118.129,39.1173 108.5,51C 108.645,51.772 108.978,52.4387 109.5,53C 107.667,55.5 105.5,57.6667 103,59.5C 102.775,52.782 102.108,46.1153 101,39.5C 90.2462,30.1956 83.2462,32.5289 80,46.5C 77.7802,52.3463 78.1135,58.013 81,63.5C 81.414,63.9574 81.914,64.2907 82.5,64.5C 82.7753,55.4001 85.7753,47.4001 91.5,40.5C 92.086,40.2907 92.586,39.9574 93,39.5C 96.7656,52.2417 95.0989,64.2417 88,75.5C 86.6487,77.019 85.1487,78.3523 83.5,79.5C 79.0976,75.7024 75.9309,71.0357 74,65.5C 69.7184,54.3694 69.7184,43.3694 74,32.5C 76.1667,29.6667 78.6667,27.1667 81.5,25C 88.4686,23.3348 95.4686,23.0015 102.5,24C 97.7722,16.8045 91.1056,14.1378 82.5,16C 74.5309,17.966 69.0309,22.7993 66,30.5C 65.3333,34.5 64.6667,38.5 64,42.5C 63.685,48.5806 64.0183,54.5806 65,60.5C 62.0157,58.0164 59.1824,55.3497 56.5,52.5C 55.5272,49.2211 54.0272,46.2211 52,43.5C 43.1667,34.6667 34.3333,25.8333 25.5,17C 23.8333,16.6667 22.1667,16.3333 20.5,16C 18.644,13.3103 16.3106,11.1437 13.5,9.5C 10.2087,11.2118 9.7087,13.5451 12,16.5C 13.5,18 15,19.5 16.5,21C 15.1537,23.794 15.6537,26.294 18,28.5C 27.1667,38 36.3333,47.5 45.5,57C 47.7148,58.0438 50.0481,58.7105 52.5,59C 54.4606,61.9628 56.794,64.6294 59.5,67C 46.4777,66.009 34.1444,68.3423 22.5,74C 18.4864,76.5916 14.9864,79.7583 12,83.5C 9.87041,86.6649 10.0371,89.6649 12.5,92.5C 21.0715,82.3522 32.0715,76.8522 45.5,76C 55.3371,74.9759 64.6704,76.6426 73.5,81C 75.019,82.3513 76.3523,83.8513 77.5,85.5C 66.2394,97.6497 54.7394,109.65 43,121.5C 43.8012,116.954 44.3012,112.287 44.5,107.5C 44.5183,104.076 44.0183,100.743 43,97.5C 38.8059,94.0678 34.1393,91.4011 29,89.5C 18.7771,96.6639 15.9438,105.997 20.5,117.5C 21.8746,112.337 23.7079,107.337 26,102.5C 28.0642,99.4694 30.7309,97.1361 34,95.5C 35.5391,98.8234 36.3724,102.323 36.5,106C 34.3269,125.849 25.4936,142.016 10,154.5C 7.39421,147.682 5.39421,140.682 4,133.5C 3.50001,90.1679 3.33334,46.8346 3.5,3.5 Z"/></g>
<g><path style="opacity:1" fill="#006632" d="M 151.5,11.5 C 153.028,11.5173 153.528,12.184 153,13.5C 151.237,15.7193 149.237,17.7193 147,19.5C 146.5,19 146,18.5 145.5,18C 147.706,15.9633 149.706,13.7966 151.5,11.5 Z"/></g>
<g><path style="opacity:1" fill="#006632" d="M 12.5,12.5 C 15.1865,13.6638 17.5199,15.4971 19.5,18C 15.6144,18.2928 13.2811,16.4594 12.5,12.5 Z"/></g>
<g><path style="opacity:1" fill="#006532" d="M 83.5,17.5 C 89.4686,17.0541 94.8019,18.5541 99.5,22C 77.6877,19.4755 67.521,29.3088 69,51.5C 69.942,59.604 72.2753,67.2706 76,74.5C 90.9709,90.4714 106.304,106.138 122,121.5C 122.394,116.42 121.894,111.42 120.5,106.5C 120.984,101.866 122.817,97.8661 126,94.5C 123.63,104.419 124.63,114.086 129,123.5C 134.86,136.033 143.027,146.866 153.5,156C 151.5,156.667 149.5,156.667 147.5,156C 133.311,137.794 115.311,125.128 93.5,118C 84.7937,117.458 76.127,117.458 67.5,118C 72.0761,114.171 77.4095,112.338 83.5,112.5C 87.5,113 91.5,113.5 95.5,114C 103.016,116.282 110.016,119.282 116.5,123C 103.563,108.061 89.8965,93.7276 75.5,80C 65.2941,73.8615 54.2941,71.8615 42.5,74C 33.6689,76.2812 25.3355,79.6146 17.5,84C 16,85.5 14.5,87 13,88.5C 12.4795,86.7111 12.8129,85.0444 14,83.5C 28.8863,70.8186 46.053,66.3186 65.5,70C 61.1321,65.967 57.1321,61.6337 53.5,57C 54.3333,56.1667 55.1667,55.3333 56,54.5C 60.3333,59.5 64.6667,64.5 69,69.5C 67.7059,62.2853 66.5392,54.952 65.5,47.5C 65.0577,37.1348 68.3911,28.3015 75.5,21C 78.1579,19.522 80.8245,18.3554 83.5,17.5 Z"/></g>
<g><path style="opacity:1" fill="#006632" d="M 86.5,36.5 C 88.5273,36.3379 90.5273,36.5045 92.5,37C 86.9504,41.9602 83.4504,48.1269 82,55.5C 81.7656,48.7703 83.2656,42.4369 86.5,36.5 Z"/></g>
<g><path style="opacity:1" fill="#006632" d="M 94.5,39.5 C 96.1534,38.2006 97.6534,38.5339 99,40.5C 100.197,48.4385 100.864,56.4385 101,64.5C 104.185,60.4591 108.019,57.4591 112.5,55.5C 110.303,60.7029 106.637,64.7029 101.5,67.5C 100.479,68.0016 100.312,68.6683 101,69.5C 111.814,64.8539 122.648,64.6873 133.5,69C 138.518,72.1761 139.684,76.3428 137,81.5C 135.932,76.7647 133.099,73.5981 128.5,72C 117.991,69.7744 107.657,70.4411 97.5,74C 94.5086,76.9572 91.5086,79.9572 88.5,83C 86.3333,83.5 85.5,82.6667 86,80.5C 92.8956,74.0385 96.5623,66.0385 97,56.5C 97.6667,52.5 97.6667,48.5 97,44.5C 96.6264,42.5087 95.793,40.842 94.5,39.5 Z"/></g>
<g><path style="opacity:1" fill="#006532" d="M 79.5,87.5 C 80.4778,87.811 81.1445,88.4777 81.5,89.5C 80.4688,90.7003 79.6355,92.0337 79,93.5C 65.7693,106.062 53.2693,119.228 41.5,133C 48.3705,131.678 55.3705,131.344 62.5,132C 70.7514,136.029 79.4181,138.529 88.5,139.5C 92.0698,138.941 95.4032,138.108 98.5,137C 94.3491,141.49 89.1824,143.656 83,143.5C 72.5345,142.234 62.3678,139.734 52.5,136C 45.5149,135.028 39.1816,136.528 33.5,140.5C 28.6543,145.845 23.6543,151.012 18.5,156C 16.0982,156.814 13.7649,156.647 11.5,155.5C 29.6064,141.225 38.4397,122.559 38,99.5C 37.6905,98.2341 37.1905,97.0674 36.5,96C 39.4276,95.9088 41.2609,97.4088 42,100.5C 42.9133,109.271 41.7466,117.771 38.5,126C 38.8333,126.5 39.1667,127 39.5,127.5C 52.9084,114.092 66.2418,100.758 79.5,87.5 Z"/></g>
<g><path style="opacity:1" fill="#006632" d="M 28.5,91.5 C 30.0898,91.6282 31.4231,92.2949 32.5,93.5C 26.9449,97.2167 23.1116,102.217 21,108.5C 20.5095,101.458 23.0095,95.7912 28.5,91.5 Z"/></g>
<g><path style="opacity:1" fill="#fefefe" d="M 82.5,91.5 C 83.2389,91.369 83.9056,91.5357 84.5,92C 91.8333,99.6667 99.1667,107.333 106.5,115C 100.972,113.5 95.3058,112.167 89.5,111C 81.6833,109.764 74.35,111.097 67.5,115C 60.0918,123.727 61.4251,125.393 71.5,120C 82.8847,118.45 93.8847,119.784 104.5,124C 120.191,131.688 133.524,142.354 144.5,156C 103.5,156.667 62.5,156.667 21.5,156C 25.8397,151.993 29.8397,147.66 33.5,143C 40.4612,137.677 48.1278,136.344 56.5,139C 67.623,144.827 79.2897,146.494 91.5,144C 96.6361,141.861 100.469,138.361 103,133.5C 103.667,131.833 103.667,130.167 103,128.5C 100.5,131 98,133.5 95.5,136C 89.8333,136.667 84.1667,136.667 78.5,136C 73.3973,134.283 68.3973,132.283 63.5,130C 58.0861,129.134 52.7528,128.8 47.5,129C 59.7107,116.958 71.3774,104.458 82.5,91.5 Z"/></g>
<g><path style="opacity:1" fill="#006632" d="M 134.5,93.5 C 136.765,92.6576 139.098,92.9909 141.5,94.5C 147.169,98.8422 150.835,104.509 152.5,111.5C 151.946,113.61 151.112,115.61 150,117.5C 149.125,106.756 143.959,98.7558 134.5,93.5 Z"/></g>
<g><path style="opacity:1" fill="#fefffe" d="M -0.5,129.5 C 6.0473,170.382 29.3806,196.049 69.5,206.5C 46.1667,206.5 22.8333,206.5 -0.5,206.5C -0.5,180.833 -0.5,155.167 -0.5,129.5 Z"/></g>
<g><path style="opacity:1" fill="#fefffe" d="M 165.5,131.5 C 165.5,156.5 165.5,181.5 165.5,206.5C 142.167,206.5 118.833,206.5 95.5,206.5C 134.684,196.315 158.017,171.315 165.5,131.5 Z"/></g>
</svg>

<svg xmlns="http://www.w3.org/2000/svg" width="166" height="207" style="shape-rendering:geometricPrecision;text-rendering:geometricPrecision;image-rendering:optimizeQuality;fill-rule:evenodd;clip-rule:evenodd"><path style="opacity:1" d="M-.5-.5h166v132c-7.483 39.815-30.816 64.815-70 75h-26c-40.12-10.451-63.453-36.118-70-77V-.5z"/><path style="opacity:1" fill="#fefffe" d="M3.5 3.5h158c.167 44.001 0 88.001-.5 132-1.289 6.701-3.455 13.034-6.5 19-8.526-8.014-15.692-17.014-21.5-27-4.702-9.135-6.702-18.802-6-29 1.404-3.78 3.904-4.78 7.5-3a65.33 65.33 0 0 1 11.5 12 76.404 76.404 0 0 1 2 15c3.232-3.059 5.399-6.726 6.5-11-1.649-9.839-6.983-16.672-16-20.5-10.128-2.19-16.628 1.644-19.5 11.5a77.73 77.73 0 0 0 0 13 1250.003 1250.003 0 0 1-29.5-30c2.992-5.82 7.658-9.654 14-11.5 9.13-2.266 18.13-1.932 27 1 3.301 3.102 5.134 6.935 5.5 11.5 6.157-6.39 5.99-12.557-.5-18.5-8.25-4.78-16.917-5.614-26-2.5l-1-1c2.372-3.883 5.705-6.383 10-7.5L149 26.5c.595-1.399.428-2.732-.5-4a99.475 99.475 0 0 1 7-9.5c-.5-1.833-1.667-3-3.5-3.5a34.501 34.501 0 0 0-7.5 6.5l-5 1a396.453 396.453 0 0 0-31 34 3.944 3.944 0 0 0 1 2c-1.833 2.5-4 4.667-6.5 6.5a151.675 151.675 0 0 0-2-20c-10.754-9.304-17.754-6.971-21 7-2.22 5.846-1.886 11.513 1 17 .414.457.914.79 1.5 1 .275-9.1 3.275-17.1 9-24a3.646 3.646 0 0 0 1.5-1c3.766 12.742 2.099 24.742-5 36a25.522 25.522 0 0 1-4.5 4c-4.402-3.798-7.57-8.464-9.5-14-4.282-11.13-4.282-22.13 0-33a39.955 39.955 0 0 1 7.5-7.5c6.969-1.665 13.969-1.998 21-1-4.728-7.195-11.394-9.862-20-8-7.97 1.966-13.47 6.8-16.5 14.5l-2 12a83.344 83.344 0 0 0 1 18 96.004 96.004 0 0 1-8.5-8 28.524 28.524 0 0 0-4.5-9L25.5 17l-5-1a21.745 21.745 0 0 0-7-6.5c-3.291 1.712-3.791 4.045-1.5 7l4.5 4.5c-1.346 2.794-.846 5.294 1.5 7.5L45.5 57a22.5 22.5 0 0 0 7 2 39.788 39.788 0 0 0 7 8c-13.022-.991-25.356 1.342-37 7A43.631 43.631 0 0 0 12 83.5c-2.13 3.165-1.963 6.165.5 9 8.572-10.148 19.572-15.648 33-16.5 9.837-1.024 19.17.643 28 5a25.522 25.522 0 0 1 4 4.5 1498.602 1498.602 0 0 1-34.5 36 105.901 105.901 0 0 0 1.5-14 32.596 32.596 0 0 0-1.5-10 48.53 48.53 0 0 0-14-8c-10.223 7.164-13.056 16.497-8.5 28a87.569 87.569 0 0 1 5.5-15c2.064-3.03 4.73-5.364 8-7a26.962 26.962 0 0 1 2.5 10.5c-2.173 19.849-11.006 36.016-26.5 48.5a125.933 125.933 0 0 1-6-21c-.5-43.332-.667-86.665-.5-130z"/><path style="opacity:1" fill="#006632" d="M151.5 11.5c1.528.017 2.028.684 1.5 2a37.312 37.312 0 0 1-6 6l-1.5-1.5a54.538 54.538 0 0 0 6-6.5zM12.5 12.5c2.687 1.164 5.02 2.997 7 5.5-3.886.293-6.219-1.54-7-5.5z"/><path style="opacity:1" fill="#006532" d="M83.5 17.5c5.969-.446 11.302 1.054 16 4.5-21.812-2.524-31.979 7.309-30.5 29.5a66.601 66.601 0 0 0 7 23 1526.623 1526.623 0 0 0 46 47 42.536 42.536 0 0 0-1.5-15c.484-4.634 2.317-8.634 5.5-12-2.37 9.919-1.37 19.586 3 29 5.86 12.533 14.027 23.366 24.5 32.5-2 .667-4 .667-6 0-14.189-18.206-32.189-30.872-54-38a208.074 208.074 0 0 0-26 0c4.576-3.829 9.91-5.662 16-5.5l12 1.5c7.516 2.282 14.516 5.282 21 9a622.187 622.187 0 0 0-41-43c-10.206-6.138-21.206-8.138-33-6-8.831 2.281-17.165 5.615-25 10L13 88.5c-.52-1.789-.187-3.456 1-5C28.886 70.819 46.053 66.319 65.5 70a110.22 110.22 0 0 1-12-13l2.5-2.5 13 15a572.37 572.37 0 0 1-3.5-22c-.442-10.365 2.891-19.198 10-26.5 2.658-1.478 5.325-2.645 8-3.5z"/><path style="opacity:1" fill="#006632" d="M86.5 36.5a18.436 18.436 0 0 1 6 .5c-5.55 4.96-9.05 11.127-10.5 18.5-.234-6.73 1.266-13.063 4.5-19zM94.5 39.5c1.653-1.3 3.153-.966 4.5 1a181.3 181.3 0 0 1 2 24c3.185-4.04 7.019-7.04 11.5-9-2.197 5.203-5.863 9.203-11 12-1.021.502-1.188 1.168-.5 2 10.814-4.646 21.648-4.813 32.5-.5 5.018 3.176 6.184 7.343 3.5 12.5-1.068-4.735-3.901-7.902-8.5-9.5-10.509-2.226-20.843-1.559-31 2a1116.473 1116.473 0 0 0-9 9c-2.167.5-3-.333-2.5-2.5 6.896-6.462 10.562-14.462 11-24 .667-4 .667-8 0-12-.374-1.991-1.207-3.658-2.5-5z"/><path style="opacity:1" fill="#006532" d="M79.5 87.5c.978.311 1.644.978 2 2a15.653 15.653 0 0 0-2.5 4A522.732 522.732 0 0 0 41.5 133c6.87-1.322 13.87-1.656 21-1 8.251 4.029 16.918 6.529 26 7.5 3.57-.559 6.903-1.392 10-2.5-4.15 4.49-9.318 6.656-15.5 6.5a129.972 129.972 0 0 1-30.5-7.5c-6.985-.972-13.318.528-19 4.5a330.034 330.034 0 0 1-15 15.5c-2.402.814-4.735.647-7-.5 18.106-14.275 26.94-32.941 26.5-56a11.362 11.362 0 0 0-1.5-3.5c2.928-.091 4.76 1.409 5.5 4.5.913 8.771-.253 17.271-3.5 25.5l1 1.5 40-40z"/><path style="opacity:1" fill="#006632" d="M28.5 91.5c1.59.128 2.923.795 4 2-5.555 3.717-9.388 8.717-11.5 15-.49-7.042 2.01-12.709 7.5-17z"/><path style="opacity:1" fill="#fefefe" d="M82.5 91.5a2.428 2.428 0 0 1 2 .5l22 23a262.234 262.234 0 0 0-17-4c-7.817-1.236-15.15.097-22 4-7.408 8.727-6.075 10.393 4 5 11.385-1.55 22.385-.216 33 4 15.691 7.688 29.024 18.354 40 32-41 .667-82 .667-123 0 4.34-4.007 8.34-8.34 12-13 6.961-5.323 14.628-6.656 23-4 11.123 5.827 22.79 7.494 35 5 5.136-2.139 8.969-5.639 11.5-10.5.667-1.667.667-3.333 0-5l-7.5 7.5a72.464 72.464 0 0 1-17 0 144.679 144.679 0 0 1-15-6c-5.414-.866-10.747-1.2-16-1a617.728 617.728 0 0 0 35-37.5z"/><path style="opacity:1" fill="#006632" d="M134.5 93.5c2.265-.842 4.598-.51 7 1 5.669 4.342 9.335 10.009 11 17a23.597 23.597 0 0 1-2.5 6c-.875-10.744-6.041-18.744-15.5-24z"/><path style="opacity:1" fill="#fefffe" d="M-.5 129.5c6.547 40.882 29.88 66.549 70 77h-70v-77zM165.5 131.5v75h-70c39.184-10.185 62.517-35.185 70-75z"/></svg>
